public/hand.svg

<svg xmlns="http://www.w3.org/2000/svg" width="1446" height="704" fill="none" viewBox="0 0 1446 704"><path fill="#b8926a" d="M718.838 300.529c-12.499-7.77-21.654-20.197-24.375-36.866-.646-3.92-8.509-5.718-12.061-3.343-21.607 14.571-43.791 24.231-66.944 34.814-8.071 3.688-11.369 6.709-19.763.807-16.811-11.805-28.456-26.86-36.873-46.135l-26.566-60.912c-8.071-18.491-19.347-35.575-33.276-49.293-45.429-44.797-116.755 21.28-150.261 66.792 39.502 2.536 76.076 39.955 82.072 74.1 2.767 15.747-3.69 28.658-18.31 33.223-40.356 12.612-92.242-10.352-92.08-48.946.069-18.975 9.731-34.422 17.572-51.576-54.746 18.86-91.919 59.253-151.968 62.527-20.939 1.13-42.685 2.006-63.485-.185-41.486-4.38-81.68-9.937-122.52-22.686 41.416 2.974 79.074 15.378 120.168 18.098 79.881 5.303 104.97-1.59 171.361-41.661 15.612-9.43 32.677-16.462 50.087-21.534 20.985-26.56 42.985-52.313 72.271-70.319 37.243-22.894 68.075-26.975 97.269 8.162 13.029 15.677 22 33.73 30.278 52.543l26.058 59.253c7.403 16.807 21.239 28.957 34.729 35.966 16.489-22.732 71.672-82.907 78.06-68.382 4.081 9.268 2.882 20.957 2.421 30.087l24.928-.715c33.922-.968 81.957 43.76 53.085 45.673-25.297 1.683-43.1-13.026-60.072-31.286 5.142 21.349 23.337 33.015 44.207 34.883 34.729 3.136 76.053 8.346 69.919 38.341 3.067 4.842 6.803 13.764 5.488 19.667-10.608 5.533-26.312 7.101-37.427.369-7.264-4.404-5.627-21.926 2.767-25.892 3.944-1.867 10.746-2.19 17.665-3.251-4.613-3.873-11.646-7.447-18.126-9.014l-50.364-12.127-19.785-4.773c4.565 30.802 10.561 56.647 40.032 58.446l33.669 2.052c19.093 1.175 32.169 6.547 44.368 21.28 13.79 16.646 29.378 31.747 45.313 46.457 19.486 17.96 39.918 32.462 66.76 37.649 4.589.876 17.249.485 18.863-3.919l7.218-19.459-29.402-1.429c-22.368-4.865-43.238-12.819-61.571-26.122-16.419-11.897-24.997-29.442-32.976-47.771-22.738-52.29-46.905-97.917-102.642-116.5-14.113-4.703-27.326-13.902-37.288-24.623l-22.162-23.839c-12.36-13.303-11.83-29.535 1.13-41.685 8.072-7.585 16.396-11.85 28.019-5.787l-4.243-7.055c-1.084-1.775 1.914-6.64 3.805-7.885 22.945-14.986 15.773-42.468 30.047-71.149 7.449-14.986 24.168-20.15 38.995-12.819 21.354 10.583 40.033 23.033 59.634 37.419 3.483 2.559 5.696 9.661 6.573 15.24 40.355-31.932 79.673-64.21 121.758-94.136C986.914 9.913 1003.24 1.083 1023.42 0c9.91 6.432 20.15 22.48 21.15 32.877l-12.25 14.963c-38.165 27.229-77.967 50.054-119.406 72.003-7.241 3.827-16.027 4.011-25.274 6.524 12.245 5.349 24.42 8.646 33.921 14.318 15.843 25.937 30.255 51.39 39.387 80.302 21.331 67.507 55.622 112.672 122.662 138.518 68.85 26.536 138.68 45.281 210.81 60.751 24.82 5.326 75.34 19.966 65.31 30.687-7.52 8.046-22.02 8.392-32.01 6.133l-43.86-9.937-180.77-58.884c-28.32-9.222-54.26-16.831-84.86-20.658l4.8 30.802c-1.94 40.071-36.116 58.999-36.623 68.452-.138 2.582 4.174 5.971 7.08 8.438l85.003 27.459c30.71 11.436 60.21 22.71 89.49 37.235 35.24 17.476 68.52 34.215 102.39 54.573C1329.71 630.222 1389.2 662.8 1446 704l-200.88-118.966c-68.37-40.486-139.12-71.196-215.57-92.983l-39.661-13.949c-3.136-1.107-8.071-6.409-8.371-9.522-1.36-13.211 34.592-29.811 37.032-70.227.65-10.605-8.3-23.355-2.79-31.194 1.39-1.983 7.61-4.288 10.38-3.62l52.42 12.427 196.54 63.656 48.03 12.52c11.26 2.928 22.12 2.835 33.63-3.92-16.26-12.058-34.8-17.153-54.93-21.557-65.31-14.248-128.29-30.479-191.57-52.451-27.37-9.499-53.52-19.482-76.95-36.197-39.362-28.059-62.584-69.351-76.489-114.932-8.602-28.197-22.946-52.174-37.796-77.743-11.692-9.706-25.966-8.946-32.585-14.756-4.335-3.804 5.858-13.579-3.436-21.995-2.444-2.213-4.75-4.219-4.104-5.648l3.297-7.263-40.955 31.402 3.298-17.983c-18.333-16.162-40.679-31.148-63.024-42.215-13.283-6.57-26.981-1.89-33.161 10.882-16.004 33.062-6.457 56.924-34.983 75.853 17.273 11.643 38.465 15.77 56.798 10.513 6.434-6.179 13.191-11.873 20.87-16.669l33.76-21.119c1.73-1.083 8.971-1.36 8.717.623l-1.176 9.291-59.588 34.468c7.61 10.329 16.672 18.859 27.626 25.223l60.533-49.547c11.577-9.475 23.384-10.305 37.543-5.625 10.677 3.527 19.693 9.499 22.414 21.695 4.682 20.981-1.314 40.947-11.714 59.622-5.558 10.006-12.222 19.482-24.191 23.194 42.086 21.672 79.213 62.503 109.26 101.836 23.246 31.678 18.356 75.045-14.873 97.571-11.208 17.591-6.527 35.713-30.117 32.877-24.56-2.951-46.813-14.963-65.538-31.517-19.786-17.499-37.427-35.713-55.276-55.402-5.557-6.133-12.475-14.11-21.1-15.678-36.55-6.64-68.835.369-81.818-19.62-10.331-15.932-21.7-50.676-6.664-54.919zM1006.08 8.946c-13.17 2.697-22.901 9.36-33.048 16.692-30.025 21.695-58.896 42.699-88.068 68.567 38.673-23.31 84.84-52.82 121.116-85.283zM891.883 111.38l19.693-13.58c39.71-23.747 76.607-47.747 114.884-74.676L1014.7 8.254c-19.945 17.568-38.209 31.494-59.355 45.742l-70.657 47.633c1.13 3.043 5.281 8.692 7.171 9.775zm18.771 4.911c40.817-21.788 78.359-43.92 115.906-69.328 2.58-1.73 5.9-6.893 6.57-9.522.67-2.628-2.45-8.254-4.85-10.144-35.831 25.038-70.468 48.393-107.618 70.18-10.17 5.972-17.941 11.575-28.249 20.566 5.926 2.006 12.222 1.453 18.241-1.752m-30.256 118.275c.416 1.867 4.105 5.072 5.858 5.303 12.383 1.613 48.68-63.611 23.544-87.681-6.987-6.686-25.597-13.003-34.936-8.23-17.78 9.083-30.924 22.225-45.429 35.436l21.746-8.969c6.157-1.867 14.828 1.407 16.465 8.093l4.958 20.266 7.771 35.759zm-156.28-33.546 13.076-15.977c-9.109-6.848-20.847-19.851-34.107-20.797-10.769-.76-20.915 13.096-22.483 22.664-.923 5.533 3.366 13.972 6.341 17.545 13.49-10.282 27.88 7.931 37.173-3.435M999.759 410.48c8.461-17.384 5.281-37.857-5.673-54.388-23.014-34.721-52.462-65.27-85.715-91.046-35.997-27.897-95.309-33.5-92.98-74.4-4.427 3.666-14.389 10.398-19.232 7.816-12.983-6.894-21.884-16.669-28.503-27.759-17.387.991-31.961-1.637-49.257-6.594l23.176 17.937c16.188-5.948 36.412 7.862 52.278 20.243 3.943 3.066 7.379 13.211 8.763 17.753 7.079-.208 15.081.991 21.008 4.911 14.343 9.452 28.11 16.715 43.838 23.217 12.153 5.026 21.63 12.888 31.177 21.856 42.339 39.771 97.684 83.945 101.12 140.477zM879.661 242.705c-12.499-22.594-7.311-48.624-19.14-66.515-9.847-4.473-36.874 10.283-39.618 20.197-5.027 18.214 35.766 36.912 58.758 46.318m109.744 140.016c-10.516-23.216-25.09-43.828-43.238-61.212l-48.335-46.249c-11.784-11.297-23.337-19.92-38.672-26.03-35.213-14.041-50.433-38.387-65.884-15.931-3.805 5.533-14.112 11.527-20.247 7.032.577-13.926 20.478-13.857 24.075-20.543 4.797-8.876-27.049-33.684-50.386-35.943-6.411 21.672-21.723 37.672-44.553 35.551 12.153 18.629 30.44 29.742 51.148 37.004 53.315 18.652 77.806 69.397 99.206 119.266 11.576 26.975 28.479 46.757 56.313 57.316 29.217 11.09 57.351 21.534 74.692-.438 11.438-14.478 14.344-31.055 5.858-49.823zM703.618 206.969l-10.723-1.152c9.016 11.666 22.161 10.421 32.123 3.481-8.625-.208-13.491-1.476-21.4-2.329M406.231 310.973c15.243-3.482 23.568-14.802 19.901-30.387-8.394-35.736-45.175-71.726-81.795-68.106-12.775 23.47-27.211 49.753-14.643 70.918 13.698 23.079 47.597 34.192 76.537 27.575m272.804-60.567c0-9.453-.299-14.756-2.467-24.462-13.121 7.793-19.44 13.557-26.589 22.917 11.923-6.248 18.011-7.746 29.079 1.568zm-.899 6.755c-5.765-5.21-9.063-8.208-11.668-9.406-7.08-3.251-28.48 20.726-40.149 36.358 20.317-6.94 35.56-15.908 51.817-26.952m88.206 35.851c-9.616-15.032-22.553-21.395-35.49-28.312-10.216-4.634-19.486-8.784-31.777-4.957l24.398 23.932c10.746 10.536 28.341 15.147 42.869 9.337m44.968 41.039c-2.86-18.997-42.27-25.153-67.29-24.554l42.984 10.075c9.478 2.214 16.996 7.978 24.306 14.456zm6.134 23.886-9.478-18.583c-4.751-.692-14.044-.761-18.933.369-6.756 1.545-8.463 16.485-2.951 19.182 9.916 4.865 21.077 3.597 31.362-.991z"/></svg>

<svg width="1446" height="704" viewBox="0 0 1446 704" fill="none" xmlns="http://www.w3.org/2000/svg">
<path d="M718.838 300.529C706.339 292.759 697.184 280.332 694.463 263.663C693.817 259.743 685.954 257.945 682.402 260.32C660.795 274.891 638.611 284.551 615.458 295.134C607.387 298.822 604.089 301.843 595.695 295.941C578.884 284.136 567.239 269.081 558.822 249.806L532.256 188.894C524.185 170.403 512.909 153.319 498.98 139.601C453.551 94.8043 382.225 160.881 348.719 206.393C388.221 208.929 424.795 246.348 430.791 280.493C433.558 296.24 427.101 309.151 412.481 313.716C372.125 326.328 320.239 303.364 320.401 264.77C320.47 245.795 330.132 230.348 337.973 213.194C283.227 232.054 246.054 272.447 186.005 275.721C165.066 276.851 143.32 277.727 122.52 275.536C81.0341 271.156 40.8399 265.599 0 252.85C41.4164 255.824 79.074 268.228 120.168 270.948C200.049 276.251 225.138 269.358 291.529 229.287C307.141 219.857 324.206 212.825 341.616 207.753C362.601 181.193 384.601 155.44 413.887 137.434C451.13 114.54 481.962 110.459 511.156 145.596C524.185 161.273 533.156 179.326 541.434 198.139L567.492 257.392C574.895 274.199 588.731 286.349 602.221 293.358C618.71 270.626 673.893 210.451 680.281 224.976C684.362 234.244 683.163 245.933 682.702 255.063L707.63 254.348C741.552 253.38 789.587 298.108 760.715 300.021C735.418 301.704 717.615 286.995 700.643 268.735C705.785 290.084 723.98 301.75 744.85 303.618C779.579 306.754 820.903 311.964 814.769 341.959C817.836 346.801 821.572 355.723 820.257 361.626C809.649 367.159 793.945 368.727 782.83 361.995C775.566 357.591 777.203 340.069 785.597 336.103C789.541 334.236 796.343 333.913 803.262 332.852C798.649 328.979 791.616 325.405 785.136 323.838L734.772 311.711L714.987 306.938C719.552 337.74 725.548 363.585 755.019 365.384L788.688 367.436C807.781 368.611 820.857 373.983 833.056 388.716C846.846 405.362 862.434 420.463 878.369 435.173C897.855 453.133 918.287 467.635 945.129 472.822C949.718 473.698 962.378 473.307 963.992 468.903L971.21 449.444L941.808 448.015C919.44 443.15 898.57 435.196 880.237 421.893C863.818 409.996 855.24 392.451 847.261 374.122C824.523 321.832 800.356 276.205 744.619 257.622C730.506 252.919 717.293 243.72 707.331 232.999L685.169 209.16C672.809 195.857 673.339 179.625 686.299 167.475C694.371 159.89 702.695 155.625 714.318 161.688L710.075 154.633C708.991 152.858 711.989 147.993 713.88 146.748C736.825 131.762 729.653 104.28 743.927 75.599C751.376 60.6129 768.095 55.4485 782.922 62.7802C804.276 73.3626 822.955 85.8126 842.556 100.199C846.039 102.758 848.252 109.86 849.129 115.439C889.484 83.5071 928.802 51.2293 970.887 21.3033C986.914 9.91387 1003.24 1.08361 1023.42 0C1033.33 6.43249 1043.57 22.4791 1044.57 32.8772L1032.32 47.8402C994.155 75.0687 954.353 97.8937 912.914 119.843C905.673 123.67 896.887 123.854 887.64 126.367C899.885 131.716 912.06 135.013 921.561 140.685C937.404 166.622 951.816 192.075 960.948 220.987C982.279 288.494 1016.57 333.659 1083.61 359.505C1152.46 386.041 1222.29 404.786 1294.42 420.256C1319.24 425.582 1369.76 440.222 1359.73 450.943C1352.21 458.989 1337.71 459.335 1327.72 457.076L1283.86 447.139L1103.09 388.255C1074.77 379.033 1048.83 371.424 1018.23 367.597L1023.03 398.399C1021.09 438.47 986.914 457.398 986.407 466.851C986.269 469.433 990.581 472.822 993.487 475.289L1078.49 502.748C1109.2 514.184 1138.7 525.458 1167.98 539.983C1203.22 557.459 1236.5 574.198 1270.37 594.556C1329.71 630.222 1389.2 662.8 1446 704L1245.12 585.034C1176.75 544.548 1106 513.838 1029.55 492.051L989.889 478.102C986.753 476.995 981.818 471.693 981.518 468.58C980.158 455.369 1016.11 438.769 1018.55 398.353C1019.2 387.748 1010.25 374.998 1015.76 367.159C1017.15 365.176 1023.37 362.871 1026.14 363.539L1078.56 375.966L1275.1 439.622L1323.13 452.142C1334.39 455.07 1345.25 454.977 1356.76 448.222C1340.5 436.164 1321.96 431.069 1301.83 426.665C1236.52 412.417 1173.54 396.186 1110.26 374.214C1082.89 364.715 1056.74 354.732 1033.31 338.017C993.948 309.958 970.726 268.666 956.821 223.085C948.219 194.888 933.875 170.911 919.025 145.342C907.333 135.636 893.059 136.396 886.44 130.586C882.105 126.782 892.298 117.007 883.004 108.591C880.56 106.378 878.254 104.372 878.9 102.943L882.197 95.6804L841.242 127.082L844.54 109.099C826.207 92.9368 803.861 77.9507 781.516 66.884C768.233 60.3132 754.535 64.9935 748.355 77.7662C732.351 110.828 741.898 134.69 713.372 153.619C730.645 165.262 751.837 169.389 770.17 164.132C776.604 157.953 783.361 152.259 791.04 147.463L824.8 126.344C826.53 125.261 833.771 124.984 833.517 126.967L832.341 136.258L772.753 170.726C780.363 181.055 789.425 189.585 800.379 195.949L860.912 146.402C872.489 136.927 884.296 136.097 898.455 140.777C909.132 144.304 918.148 150.276 920.869 162.472C925.551 183.453 919.555 203.419 909.155 222.094C903.597 232.1 896.933 241.576 884.964 245.288C927.05 266.96 964.177 307.791 994.224 347.124C1017.47 378.802 1012.58 422.169 979.351 444.695C968.143 462.286 972.824 480.408 949.234 477.572C924.674 474.621 902.421 462.609 883.696 446.055C863.91 428.556 846.269 410.342 828.42 390.653C822.863 384.52 815.945 376.543 807.32 374.975C770.77 368.335 738.485 375.344 725.502 355.355C715.171 339.423 703.802 304.679 718.838 300.436V300.529ZM1006.08 8.94554C992.91 11.643 983.179 18.3061 973.032 25.6377C943.007 47.333 914.136 68.3365 884.964 94.2048C923.637 70.8957 969.804 41.3846 1006.08 8.92248V8.94554ZM891.883 111.381L911.576 97.8015C951.286 74.0543 988.183 50.0535 1026.46 23.1247L1014.7 8.25387C994.755 25.8222 976.491 39.7477 955.345 53.996L884.688 101.629C885.818 104.672 889.969 110.321 891.859 111.404L891.883 111.381ZM910.654 116.292C951.471 94.5045 989.013 72.3713 1026.56 46.9641C1029.14 45.2349 1032.46 40.0705 1033.13 37.4422C1033.8 34.8138 1030.68 29.1883 1028.28 27.2977C992.449 52.336 957.812 75.6912 920.662 97.4787C910.492 103.45 902.721 109.053 892.413 118.044C898.339 120.05 904.635 119.497 910.654 116.292ZM880.398 234.567C880.814 236.434 884.503 239.639 886.256 239.87C898.639 241.483 934.936 176.259 909.8 152.189C902.813 145.503 884.203 139.186 874.864 143.959C857.084 153.042 843.94 166.184 829.435 179.395L851.181 170.426C857.338 168.559 866.009 171.833 867.646 178.519L872.604 198.785L880.375 234.544L880.398 234.567ZM724.118 201.021L737.194 185.044C728.085 178.196 716.347 165.193 703.087 164.247C692.318 163.487 682.172 177.343 680.604 186.911C679.681 192.444 683.97 200.883 686.945 204.456C700.435 194.174 714.825 212.387 724.118 201.021ZM999.759 410.48C1008.22 393.096 1005.04 372.623 994.086 356.092C971.072 321.371 941.624 290.822 908.371 265.046C872.374 237.149 813.062 231.546 815.391 190.646C810.964 194.312 801.002 201.044 796.159 198.462C783.176 191.568 774.275 181.793 767.656 170.703C750.269 171.694 735.695 169.066 718.399 164.109L741.575 182.046C757.763 176.098 777.987 189.908 793.853 202.289C797.796 205.355 801.232 215.5 802.616 220.042C809.695 219.834 817.697 221.033 823.624 224.953C837.967 234.405 851.734 241.668 867.462 248.17C879.615 253.196 889.092 261.058 898.639 270.026C940.978 309.797 996.323 353.971 999.759 410.503V410.48ZM879.661 242.705C867.162 220.111 872.35 194.081 860.521 176.19C850.674 171.717 823.647 186.473 820.903 196.387C815.876 214.601 856.669 233.299 879.661 242.705ZM989.405 382.721C978.889 359.505 964.315 338.893 946.167 321.509L897.832 275.26C886.048 263.963 874.495 255.34 859.16 249.23C823.947 235.189 808.727 210.843 793.276 233.299C789.471 238.832 779.164 244.826 773.029 240.331C773.606 226.405 793.507 226.474 797.104 219.788C801.901 210.912 770.055 186.104 746.718 183.845C740.307 205.517 724.995 221.517 702.165 219.396C714.318 238.025 732.605 249.138 753.313 256.4C806.628 275.052 831.119 325.797 852.519 375.666C864.095 402.641 880.998 422.423 908.832 432.982C938.049 444.072 966.183 454.516 983.524 432.544C994.962 418.066 997.868 401.489 989.382 382.721H989.405ZM703.618 206.969L692.895 205.817C701.911 217.483 715.056 216.238 725.018 209.298C716.393 209.09 711.527 207.822 703.618 206.969ZM406.231 310.973C421.474 307.491 429.799 296.171 426.132 280.586C417.738 244.85 380.957 208.86 344.337 212.48C331.562 235.95 317.126 262.233 329.694 283.398C343.392 306.477 377.291 317.59 406.231 310.973ZM679.035 250.406C679.035 240.953 678.736 235.65 676.568 225.944C663.447 233.737 657.128 239.501 649.979 248.861C661.902 242.613 667.99 241.115 679.058 250.429L679.035 250.406ZM678.136 257.161C672.371 251.951 669.073 248.953 666.468 247.755C659.388 244.504 637.988 268.481 626.319 284.113C646.636 277.173 661.879 268.205 678.136 257.161ZM766.342 293.012C756.726 277.98 743.789 271.617 730.852 264.7C720.636 260.066 711.366 255.916 699.075 259.743L723.473 283.675C734.219 294.211 751.814 298.822 766.342 293.012ZM811.31 334.051C808.45 315.054 769.04 308.898 744.02 309.497L787.004 319.572C796.482 321.786 804 327.55 811.31 334.028V334.051ZM817.444 357.937L807.966 339.354C803.215 338.662 793.922 338.593 789.033 339.723C782.277 341.268 780.57 356.208 786.082 358.905C795.998 363.77 807.159 362.502 817.444 357.914V357.937Z" fill="#B8926A"/>
</svg>
